svg/dashboard.svg

<svg xmlns="http://www.w3.org/2000/svg" viewBox="0 0 64 48" enable-background="new 0 0 64 48"><style type="text/css">.st0{fill:#333333;}</style><title>dashboard</title><desc>Created with Sketch.</desc><path class="st0" d="M32 0c-17.7 0-32 14.3-32 32 0 5.8 1.6 11.3 4.3 16h55.4c2.7-4.7 4.3-10.2 4.3-16 0-17.7-14.3-32-32-32zm25.3 44h-50.6c-1.8-3.7-2.7-7.8-2.7-12 0-15.5 12.5-28 28-28s28 12.5 28 28c0 4.2-.9 8.3-2.7 12zM26.9 37.1c2.7 2.7 7.2 2.7 9.9 0s6.2-16.1 6.2-16.1-13.4 3.5-16.1 6.2c-2.7 2.7-2.7 7.2 0 9.9zm2.2-7.8c.2-.2.8-.5 1.6-1 1.3-.6 3-1.3 5.1-2 .9-.3 1.9-.6 2.9-1-.3 1-.6 2-1 2.9-.7 2.1-1.4 3.8-2 5.1-.4.8-.8 1.4-1 1.6-1.6 1.6-4.1 1.6-5.7 0-1.5-1.5-1.5-4 .1-5.6z"/><circle class="st0" cx="16" cy="16" r="2"/><circle class="st0" cx="32" cy="10" r="3"/><circle class="st0" cx="10" cy="32" r="3"/><circle class="st0" cx="54" cy="32" r="3"/><circle class="st0" cx="48" cy="16" r="2"/></svg>

<?xml version="1.0" encoding="utf-8"?>
<!-- Generator: Adobe Illustrator 21.0.0, SVG Export Plug-In . SVG Version: 6.00 Build 0)  -->
<svg version="1.1" id="Layer_1" xmlns="http://www.w3.org/2000/svg" xmlns:xlink="http://www.w3.org/1999/xlink" x="0px" y="0px"
	 viewBox="0 0 64 48" style="enable-background:new 0 0 64 48;" xml:space="preserve">
<style type="text/css">
	.st0{fill:#333333;}
</style>
<title>dashboard</title>
<desc>Created with Sketch.</desc>
<g>
	<path class="st0" d="M32,0C14.3,0,0,14.3,0,32c0,5.8,1.6,11.3,4.3,16h55.4c2.7-4.7,4.3-10.2,4.3-16C64,14.3,49.7,0,32,0z M57.3,44
		H6.7C4.9,40.3,4,36.2,4,32C4,16.5,16.5,4,32,4s28,12.5,28,28C60,36.2,59.1,40.3,57.3,44z"/>
	<path class="st0" d="M26.9,37.1c2.7,2.7,7.2,2.7,9.9,0c2.7-2.7,6.2-16.1,6.2-16.1s-13.4,3.5-16.1,6.2
		C24.2,29.9,24.2,34.4,26.9,37.1z M29.1,29.3c0.2-0.2,0.8-0.5,1.6-1c1.3-0.6,3-1.3,5.1-2c0.9-0.3,1.9-0.6,2.9-1c-0.3,1-0.6,2-1,2.9
		c-0.7,2.1-1.4,3.8-2,5.1c-0.4,0.8-0.8,1.4-1,1.6c-1.6,1.6-4.1,1.6-5.7,0C27.5,33.4,27.5,30.9,29.1,29.3z"/>
	<circle class="st0" cx="16" cy="16" r="2"/>
	<circle class="st0" cx="32" cy="10" r="3"/>
	<circle class="st0" cx="10" cy="32" r="3"/>
	<circle class="st0" cx="54" cy="32" r="3"/>
	<circle class="st0" cx="48" cy="16" r="2"/>
</g>
</svg>
